svgs/duotone/face-sunglasses.svg

<svg xmlns="http://www.w3.org/2000/svg" viewBox="0 0 512 512"><!--! Font Awesome Pro 6.4.0 by @fontawesome - https://fontawesome.com License - https://fontawesome.com/license (Commercial License) Copyright 2023 Fonticons, Inc. --><defs><style>.fa-secondary{opacity:.4}</style></defs><path class="fa-primary" d="M183.3 272H104.7c-23.5 0-43.5-17-47.3-40.1L50.7 192H16c-8.8 0-16-7.2-16-16s7.2-16 16-16H51.4c6.5-18.4 24.1-32 45.3-32h94.7c14.4 0 27.1 6.2 35.8 16h57.8c8.7-9.8 21.4-16 35.8-16h94.7c21.2 0 38.7 13.6 45.3 32H496c8.8 0 16 7.2 16 16s-7.2 16-16 16H461.3l-6.6 39.9C450.8 255 430.8 272 407.3 272H328.7c-23.5 0-43.5-17-47.3-40.1l-8-48c-.4-2.7-.7-5.3-.7-7.9H239.3c0 2.6-.2 5.2-.7 7.9l-8 48C226.8 255 206.8 272 183.3 272z"/><path class="fa-secondary" d="M512 256c0 141.4-114.6 256-256 256S0 397.4 0 256c0-22.8 3-44.8 8.5-65.8c2.2 1.2 4.8 1.8 7.5 1.8H50.7l6.6 39.9C61.2 255 81.2 272 104.7 272h78.7c23.5 0 43.5-17 47.3-40.1l8-48c.4-2.7 .7-5.3 .7-7.9h33.3c0 2.6 .2 5.2 .7 7.9l8 48c3.9 23.1 23.9 40.1 47.3 40.1h78.7c23.5 0 43.5-17 47.3-40.1l6.6-39.9H496c2.7 0 5.2-.7 7.5-1.8c5.6 21 8.5 43.1 8.5 65.8zM256 0C363.4 0 455.4 66.2 493.4 160H460.6c-6.5-18.4-24.1-32-45.3-32H320.7c-14.4 0-27.1 6.2-35.8 16H227.1c-8.7-9.8-21.4-16-35.8-16H96.7c-21.2 0-38.7 13.6-45.3 32H18.6C56.6 66.2 148.6 0 256 0zM164.1 341.5c-5.8-6.7-15.9-7.4-22.6-1.6s-7.4 15.9-1.6 22.6c22.2 25.7 61 53.5 116.1 53.5s93.8-27.9 116.1-53.5c5.8-6.7 5.1-16.8-1.6-22.6s-16.8-5.1-22.6 1.6C330 362.2 299.4 384 256 384s-74-21.8-91.9-42.5z"/></svg>

<svg xmlns="http://www.w3.org/2000/svg" viewBox="0 0 512 512"><!--! Font Awesome Pro 6.3.0 by @fontawesome - https://fontawesome.com License - https://fontawesome.com/license (Commercial License) Copyright 2023 Fonticons, Inc. --><defs><style>.fa-secondary{opacity:.4}</style></defs><path class="fa-primary" d="M183.3 272H104.7C81.2 272 61.17 255 57.32 231.9L50.67 192H16C7.164 192 0 184.8 0 176C0 167.2 7.164 160 16 160H51.39C57.92 141.6 75.48 128 96.66 128H191.3C205.7 128 218.4 134.2 227.1 144H284.9C293.6 134.2 306.3 128 320.7 128H415.3C436.5 128 454.1 141.6 460.6 160H496C504.8 160 512 167.2 512 176C512 184.8 504.8 192 496 192H461.3L454.7 231.9C450.8 255 430.8 272 407.3 272H328.7C305.2 272 285.2 255 281.3 231.9L273.3 183.9C272.9 181.2 272.7 178.6 272.6 176H239.3C239.3 178.6 239.1 181.2 238.7 183.9L230.7 231.9C226.8 255 206.8 272 183.3 272H183.3z"/><path class="fa-secondary" d="M512 256C512 397.4 397.4 512 256 512C114.6 512 0 397.4 0 256C0 233.2 2.971 211.2 8.546 190.2C10.77 191.3 13.31 192 16 192H50.67L57.32 231.9C61.17 255 81.2 272 104.7 272H183.3C206.8 272 226.8 255 230.7 231.9L238.7 183.9C239.1 181.2 239.3 178.6 239.4 176H272.6C272.7 178.6 272.9 181.2 273.3 183.9L281.3 231.9C285.2 255 305.2 272 328.7 272H407.3C430.8 272 450.8 255 454.7 231.9L461.3 192H496C498.7 192 501.2 191.3 503.5 190.2C509 211.2 512 233.2 512 256H512zM164.1 341.5C158.3 334.8 148.2 334.1 141.5 339.9C134.8 345.7 134.1 355.8 139.9 362.5C162.1 388.1 200.9 416 255.1 416C311.1 416 349.8 388.1 372.1 362.5C377.9 355.8 377.2 345.7 370.5 339.9C363.8 334.1 353.7 334.8 347.9 341.5C329.9 362.2 299.4 384 255.1 384C212.6 384 182 362.2 164.1 341.5H164.1zM493.4 160H460.6C454.1 141.6 436.5 128 415.3 128H320.7C306.3 128 293.6 134.2 284.9 144H227.1C218.4 134.2 205.7 128 191.3 128H96.66C75.48 128 57.92 141.6 51.39 160H18.61C56.58 66.18 148.6 0 255.1 0C363.4 0 455.4 66.18 493.4 160H493.4z"/></svg>
